X: 6969
T: Chicago Conneely, The
R: reel
M: 4/4
K: Fmajor
|:"C"G2GF "C7"EFGB|"F"AF"C"BG "F"ABcd|"C"e2 "Gm7"fd "C"efgc|"C"e2 "Gm7"fd "C"c3B|
"C"G2GF "C7"EFGB|"F"AF"C"BG "F"ABcd|"C"e2 "Gm7"fd "C"efgf|"C"ef"C7"ge "F"f4:|
|:"F"f2 ag fa"C"gf|"F"facd "C"e3 f|"C"ge"Gm7"fd "C"e3 d|"F"cf"C"eg "C"cb"C7"ag|
"F"f2cf "C7"gbag|"F"fgfd "C"egc2|"Gm"GABG "C"cdef|1 "Gm"g3f "C"egc2:|2 "C"g2ge "F"f4||

